svg/300/outlined/browse-fill.svg

<svg xmlns="http://www.w3.org/2000/svg" width="48" height="48" viewBox="0 -960 960 960"><path d="M140.001-429.231v-333.075q0-23.529 17.082-40.611 17.082-17.082 40.611-17.082h249.613v390.768H140.001Zm372.692-390.768h249.613q23.529 0 40.611 17.082 17.082 17.082 17.082 40.738v165.64H512.693v-223.46Zm0 679.998v-391.153h307.306v333.46q0 23.529-17.082 40.611-17.082 17.082-40.611 17.082H512.693ZM140.001-363.846h307.306v223.845H197.694q-23.529 0-40.611-17.082-17.082-17.082-17.082-40.738v-166.025Z"/></svg>

<svg xmlns="http://www.w3.org/2000/svg" width="48" height="48" viewBox="0 -960 960 960"><path d="M140-429.23v-333.08q0-23.53 17.08-40.61T197.69-820h249.62v390.77H140ZM512.69-820h249.62q23.53 0 40.61 17.08T820-762.18v165.64H512.69V-820Zm0 680v-391.15H820v333.46q0 23.53-17.08 40.61T762.31-140H512.69ZM140-363.85h307.31V-140H197.69q-23.53 0-40.61-17.08T140-197.82v-166.03Z"/></svg>
